X: 1918
T: Uşşak Örnek-öz
C: Rûhî Ayangil
O: Turkey
F: http://compmusic.upf.edu/node/140
N: ussak--ornek-oz--turkaksagi--1--ruhi_ayangil
N: makam= ussak
N: form= ornek-oz
N: usul= turkaksagi = 5/8
M: 5/8
L: 1/16
K: C _2/4B   
Q: 1/4=120
%%MIDI tuningsystem comma53
d4 c4 B2 | c4B4A2  | B2c2 d2B2 A2 | G2 e2d6  | \
w:   |   |   |   | 
d4 c4 B2 | c4B4A2  | B2c2 B2A2 G2 | 
w:   |   |   | 
A8-A2  | |


